packages/icons/src/__generated__/nav/svg/nav-borrowProduct-16-active.svg

<svg xmlns="http://www.w3.org/2000/svg" fill="#1652F0" viewBox="0 0 16 16"><path d="M12.489.995h-9v2h9v-2Zm0 12h-9v2h9v-2Zm-11.5-9v8h14v-8h-14Zm6.4 2h1.2v1.4h1.4v1.2h-1.4v1.4h-1.2v-1.4h-1.4v-1.2h1.4v-1.4Z"/></svg>

<svg xmlns="http://www.w3.org/2000/svg" fill="#1652F0" viewBox="0 0 16 16"><path d="M12.5 1h-9v2h9V1Zm0 12h-9v2h9v-2ZM2 4v8h12V4H2Zm5.4 2h1.2v1.4H10v1.2H8.6V10H7.4V8.6H6V7.4h1.4V6Z"/></svg>
